; G-Code generated by Simplify3D(R) Version 3.0.0
; nov 7, 2016 at 6:02:10 P.M.
; Settings Summary
;   processName,Process4
;   applyToModels,cuerpo peripump
;   profileName,Codex 2020 (modified)
;   profileVersion,2016-09-06 20:50:05
;   baseProfile,Default
;   printMaterial,ABS
;   printQuality,Medium
;   printExtruders,
;   extruderName,Extruder 1
;   extruderToolheadNumber,0
;   extruderDiameter,0.4
;   extruderAutoWidth,1
;   extruderWidth,0.48
;   extrusionMultiplier,1
;   extruderUseRetract,1
;   extruderRetractionDistance,15
;   extruderExtraRestartDistance,0
;   extruderRetractionZLift,0
;   extruderRetractionSpeed,600
;   extruderUseCoasting,0
;   extruderCoastingDistance,0.2
;   extruderUseWipe,0
;   extruderWipeDistance,5
;   primaryExtruder,0
;   layerHeight,0.25
;   topSolidLayers,3
;   bottomSolidLayers,3
;   perimeterOutlines,3
;   printPerimetersInsideOut,1
;   startPointOption,2
;   startPointOriginX,0
;   startPointOriginY,0
;   startPointOriginZ,300
;   sequentialIslands,0
;   spiralVaseMode,0
;   firstLayerHeightPercentage,90
;   firstLayerWidthPercentage,100
;   firstLayerUnderspeed,0.7
;   useRaft,0
;   raftExtruder,0
;   raftLayers,1
;   raftOffset,3
;   raftSeparationDistance,0
;   raftInfill,100
;   disableRaftBaseLayers,0
;   useSkirt,1
;   skirtExtruder,0
;   skirtLayers,1
;   skirtOutlines,3
;   skirtOffset,3
;   usePrimePillar,0
;   primePillarExtruder,999
;   primePillarWidth,12
;   primePillarLocation,7
;   primePillarSpeedMultiplier,1
;   useOozeShield,0
;   oozeShieldExtruder,999
;   oozeShieldOffset,2
;   oozeShieldOutlines,1
;   oozeShieldSidewallShape,1
;   oozeShieldSidewallAngle,30
;   oozeShieldSpeedMultiplier,1
;   infillExtruder,0
;   internalInfillPattern,Rectilinear
;   externalInfillPattern,Rectilinear
;   infillPercentage,40
;   outlineOverlapPercentage,15
;   infillExtrusionWidthPercentage,100
;   minInfillLength,0.5
;   infillLayerInterval,1
;   infillAngles,45,-45
;   overlapInfillAngles,0
;   generateSupport,1
;   supportExtruder,0
;   supportInfillPercentage,20
;   supportExtraInflation,0
;   denseSupportLayers,0
;   denseSupportInfillPercentage,70
;   supportLayerInterval,1
;   supportHorizontalPartOffset,0.3
;   supportUpperSeparationLayers,1
;   supportLowerSeparationLayers,1
;   supportType,0
;   supportGridSpacing,1
;   maxOverhangAngle,70
;   supportAngles,0
;   temperatureName,Extruder 1 Temperature,Heated Bed
;   temperatureNumber,0,0
;   temperatureSetpointCount,1,1
;   temperatureSetpointLayers,1,1
;   temperatureSetpointTemperatures,230,100
;   temperatureStabilizeAtStartup,1,1
;   temperatureHeatedBed,0,1
;   temperatureRelayBetweenLayers,0,0
;   temperatureRelayBetweenLoops,0,0
;   fanLayers,1
;   fanSpeeds,0
;   blipFanToFullPower,0
;   adjustSpeedForCooling,1
;   minSpeedLayerTime,15
;   minCoolingSpeedSlowdown,20
;   increaseFanForCooling,0
;   minFanLayerTime,45
;   maxCoolingFanSpeed,100
;   increaseFanForBridging,0
;   bridgingFanSpeed,100
;   use5D,1
;   relativeEdistances,0
;   allowEaxisZeroing,1
;   independentExtruderAxes,0
;   includeM10123,0
;   stickySupport,1
;   applyToolheadOffsets,0
;   gcodeXoffset,0
;   gcodeYoffset,0
;   gcodeZoffset,0
;   overrideMachineDefinition,1
;   machineTypeOverride,0
;   strokeXoverride,200
;   strokeYoverride,200
;   strokeZoverride,200
;   originOffsetXoverride,0
;   originOffsetYoverride,0
;   originOffsetZoverride,0
;   homeXdirOverride,-1
;   homeYdirOverride,-1
;   homeZdirOverride,-1
;   flipXoverride,1
;   flipYoverride,-1
;   flipZoverride,1
;   toolheadOffsets,0,0|0,0|0,0|0,0|0,0|0,0
;   overrideFirmwareConfiguration,1
;   firmwareTypeOverride,RepRap (Marlin/Repetier/Sprinter)
;   GPXconfigOverride,r2
;   baudRateOverride,115200
;   overridePrinterModels,0
;   printerModelsOverride
;   startingGcode,G28 ; home all axes
;   layerChangeGcode,
;   retractionGcode,
;   toolChangeGcode,
;   endingGcode,M104 S0 ; turn off extruder,M140 S0 ; turn off bed,G28 X0 ; home X axis,G1 Z200 F5000 ; down table,M84 ; disable motors
;   createX3G,0
;   celebration,0
;   celebrationSong,Star Wars
;   createMB5G,0
;   postProcessing,
;   defaultSpeed,3600
;   outlineUnderspeed,0.8
;   solidInfillUnderspeed,1
;   supportUnderspeed,0.8
;   rapidXYspeed,4800
;   rapidZspeed,1002
;   minBridgingArea,1
;   bridgingExtraInflation,0
;   bridgingExtrusionMultiplier,1
;   bridgingSpeedMultiplier,5
;   filamentDiameter,1.75
;   filamentPricePerKg,46
;   filamentDensity,1.25
;   useMinPrintHeight,0
;   minPrintHeight,-4.5
;   useMaxPrintHeight,0
;   maxPrintHeight,20
;   useDiaphragm,0
;   diaphragmLayerInterval,20
;   robustSlicing,1
;   mergeAllIntoSolid,0
;   onlyRetractWhenCrossingOutline,1
;   retractBetweenLayers,1
;   useRetractionMinTravel,0
;   retractionMinTravel,3
;   retractWhileWiping,0
;   onlyWipeOutlines,1
;   avoidCrossingOutline,0
;   maxMovementDetourFactor,3
;   toolChangeRetractionDistance,12
;   toolChangeExtraRestartDistance,-0.5
;   toolChangeRetractionSpeed,600
;   allowThinWallGapFill,1
;   thinWallAllowedOverlapPercentage,10
;   horizontalSizeCompensation,0
G90
M82
M106 S0
M140 S100
M190 S100
M104 S230 T0
M109 S230 T0
G28 ; home all axes
G92 E0
G1 E-15.0000 F600
G1 Z0.225 F1002
; layer 1, Z = 0.225
T0
; tool H0.250 W0.480
; skirt
G1 X32.578 Y61.428 F4800
G1 E0.0000 F180
G92 E0
G1 X33.019 Y61.246 E0.0238 F2520
G1 X166.981 Y61.246 E6.7072
G1 X167.422 Y61.428 E6.7311
G1 X169.517 Y63.523 E6.8789
G1 X169.700 Y63.964 E6.9027
G1 X169.700 Y111.927 E9.2956
G1 X169.517 Y112.368 E9.3194
G1 X167.422 Y114.463 E9.4672
G1 X166.981 Y114.646 E9.4910
G1 X33.019 Y114.646 E16.1744
G1 X32.578 Y114.463 E16.1982
G1 X30.483 Y112.368 E16.3460
G1 X30.300 Y111.927 E16.3699
G1 X30.300 Y63.964 E18.7627
G1 X30.483 Y63.523 E18.7865
G1 X32.578 Y61.428 E18.9344
G92 E0
G1 E-15.0000 F600
G1 X90.479 Y118.537 F4800
G1 E0.0000 F600
G92 E0
G1 X90.920 Y118.354 E0.0238 F2520
G1 X105.883 Y118.354 E0.7703
G1 X106.324 Y118.537 E0.7941
G1 X108.419 Y120.632 E0.9419
G1 X108.601 Y121.073 E0.9658
G1 X108.601 Y136.035 E1.7122
G1 X108.419 Y136.477 E1.7361
G1 X106.324 Y138.571 E1.8839
G1 X105.883 Y138.754 E1.9077
G1 X90.920 Y138.754 E2.6542
G1 X90.479 Y138.571 E2.6780
G1 X88.384 Y136.477 E2.8258
G1 X88.201 Y136.035 E2.8496
G1 X88.201 Y121.073 E3.5961
G1 X88.384 Y120.632 E3.6199
G1 X90.479 Y118.537 E3.7677
G1 X109.405 Y118.745 F4800
G92 E0
G1 X109.588 Y118.304 E0.0238 F2520
G1 X111.683 Y116.209 E0.1716
G1 X112.124 Y116.027 E0.1954
G1 X127.086 Y116.027 E0.9419
G1 X127.527 Y116.209 E0.9658
G1 X129.622 Y118.304 E1.1136
G1 X129.805 Y118.745 E1.1374
G1 X129.805 Y133.708 E1.8839
G1 X129.622 Y134.149 E1.9077
G1 X127.527 Y136.244 E2.0555
G1 X127.086 Y136.427 E2.0793
G1 X112.124 Y136.427 E2.8258
G1 X111.683 Y136.244 E2.8496
G1 X109.588 Y134.149 E2.9974
G1 X109.405 Y133.708 E3.0212
G1 X109.405 Y118.745 E3.7677
G1 X131.179 Y118.786 F4800
G92 E0
G1 X131.361 Y118.345 E0.0238 F2520
G1 X133.456 Y116.250 E0.1716
G1 X133.897 Y116.068 E0.1954
G1 X148.860 Y116.068 E0.9419
G1 X149.301 Y116.250 E0.9658
G1 X150.258 Y117.207 E1.0332
G1 X151.578 Y115.887 E1.1264
G1 X152.019 Y115.704 E1.1502
G1 X166.981 Y115.704 E1.8967
G1 X167.422 Y115.887 E1.9205
G1 X169.517 Y117.982 E2.0683
G1 X169.700 Y118.423 E2.0921
G1 X169.700 Y133.386 E2.8386
G1 X169.517 Y133.827 E2.8624
G1 X167.422 Y135.922 E3.0102
G1 X166.981 Y136.104 E3.0341
G1 X152.019 Y136.104 E3.7805
G1 X151.578 Y135.922 E3.8044
G1 X150.621 Y134.965 E3.8719
G1 X149.301 Y136.285 E3.9650
G1 X148.860 Y136.468 E3.9888
G1 X133.897 Y136.468 E4.7353
G1 X133.456 Y136.285 E4.7591
G1 X131.361 Y134.190 E4.9069
G1 X131.179 Y133.749 E4.9307
G1 X131.179 Y118.786 E5.6772
G1 X131.659 Y118.882 F4800
G92 E0
G1 X131.768 Y118.617 E0.0143 F2520
G1 X133.728 Y116.657 E0.1526
G1 X133.993 Y116.548 E0.1669
G1 X148.765 Y116.548 E0.9038
G1 X149.029 Y116.657 E0.9181
G1 X150.258 Y117.886 E1.0048
G1 X151.850 Y116.294 E1.1171
G1 X152.114 Y116.184 E1.1314
G1 X166.886 Y116.184 E1.8684
G1 X167.150 Y116.294 E1.8827
G1 X169.110 Y118.254 E2.0209
G1 X169.220 Y118.518 E2.0352
G1 X169.220 Y133.290 E2.7722
G1 X169.110 Y133.555 E2.7865
G1 X167.150 Y135.515 E2.9248
G1 X166.886 Y135.624 E2.9390
G1 X152.114 Y135.624 E3.6760
G1 X151.850 Y135.515 E3.6903
G1 X150.621 Y134.286 E3.7770
G1 X149.029 Y135.878 E3.8893
G1 X148.765 Y135.988 E3.9036
G1 X133.993 Y135.988 E4.6405
G1 X133.728 Y135.878 E4.6548
G1 X131.768 Y133.918 E4.7931
G1 X131.659 Y133.653 E4.8074
G1 X131.659 Y118.882 E5.5444
G1 X129.325 Y118.841 F4800
G92 E0
G1 X129.325 Y133.612 E0.7370 F2520
G1 X129.215 Y133.877 E0.7513
G1 X127.255 Y135.837 E0.8895
G1 X126.991 Y135.947 E0.9038
G1 X112.219 Y135.947 E1.6408
G1 X111.954 Y135.837 E1.6551
G1 X109.995 Y133.877 E1.7934
G1 X109.885 Y133.612 E1.8077
G1 X109.885 Y118.841 E2.5446
G1 X109.995 Y118.576 E2.5589
G1 X111.954 Y116.616 E2.6972
G1 X112.219 Y116.507 E2.7115
G1 X126.991 Y116.507 E3.4484
G1 X127.255 Y116.616 E3.4627
G1 X129.215 Y118.576 E3.6010
G1 X129.325 Y118.841 E3.6153
G92 E0
G1 E-15.0000 F600
G1 X108.121 Y121.168 F4800
G1 E0.0000 F600
G92 E0
G1 X108.121 Y135.940 E0.7370 F2520
G1 X108.012 Y136.205 E0.7513
G1 X106.052 Y138.165 E0.8895
G1 X105.787 Y138.274 E0.9038
G1 X91.015 Y138.274 E1.6408
G1 X90.751 Y138.165 E1.6551
G1 X88.791 Y136.205 E1.7934
G1 X88.681 Y135.940 E1.8077
G1 X88.681 Y121.168 E2.5446
G1 X88.791 Y120.904 E2.5589
G1 X90.751 Y118.944 E2.6972
G1 X91.015 Y118.834 E2.7115
G1 X105.787 Y118.834 E3.4484
G1 X106.052 Y118.944 E3.4627
G1 X108.012 Y120.904 E3.6010
G1 X108.121 Y121.168 E3.6153
G92 E0
G1 E-15.0000 F600
G1 X166.886 Y114.166 F4800
G1 E0.0000 F600
G92 E0
G1 X33.114 Y114.166 E6.6739 F2520
G1 X32.850 Y114.056 E6.6882
G1 X30.890 Y112.096 E6.8265
G1 X30.780 Y111.832 E6.8408
G1 X30.780 Y64.060 E9.2241
G1 X30.890 Y63.795 E9.2384
G1 X32.850 Y61.835 E9.3767
G1 X33.114 Y61.726 E9.3910
G1 X166.886 Y61.726 E16.0649
G1 X167.150 Y61.835 E16.0792
G1 X169.110 Y63.795 E16.2174
G1 X169.220 Y64.060 E16.2317
G1 X169.220 Y111.832 E18.6151
G1 X169.110 Y112.096 E18.6294
G1 X167.150 Y114.056 E18.7676
G1 X166.886 Y114.166 E18.7819
G1 X166.790 Y113.686 F4800
G92 E0
G1 X33.210 Y113.686 E6.6644 F2520
G1 X33.121 Y113.649 E6.6691
G1 X31.297 Y111.824 E6.7979
G1 X31.260 Y111.736 E6.8027
G1 X31.260 Y64.155 E9.1765
G1 X31.297 Y64.067 E9.1812
G1 X33.121 Y62.242 E9.3100
G1 X33.210 Y62.206 E9.3147
G1 X166.790 Y62.206 E15.9791
G1 X166.879 Y62.242 E15.9839
G1 X168.703 Y64.067 E16.1126
G1 X168.740 Y64.155 E16.1174
G1 X168.740 Y111.736 E18.4912
G1 X168.703 Y111.824 E18.4960
G1 X166.879 Y113.649 E18.6247
G1 X166.790 Y113.686 E18.6295
G1 X166.790 Y116.664 F4800
G92 E0
G1 X166.879 Y116.701 E0.0048 F2520
G1 X168.703 Y118.526 E0.1335
G1 X168.740 Y118.614 E0.1383
G1 X168.740 Y133.195 E0.8657
G1 X168.703 Y133.283 E0.8705
G1 X166.879 Y135.108 E0.9992
G1 X166.790 Y135.144 E1.0040
G1 X152.210 Y135.144 E1.7314
G1 X152.121 Y135.108 E1.7362
G1 X150.605 Y133.591 E1.8432
G1 X150.582 Y133.646 E1.8462
G1 X148.757 Y135.471 E1.9749
G1 X148.669 Y135.508 E1.9797
G1 X134.088 Y135.508 E2.7071
G1 X134.000 Y135.471 E2.7119
G1 X132.175 Y133.646 E2.8406
G1 X132.139 Y133.558 E2.8454
G1 X132.139 Y118.977 E3.5728
G1 X132.175 Y118.889 E3.5776
G1 X134.000 Y117.064 E3.7064
G1 X134.088 Y117.028 E3.7111
G1 X148.669 Y117.028 E4.4386
G1 X148.757 Y117.064 E4.4433
G1 X150.274 Y118.581 E4.5503
G1 X150.297 Y118.526 E4.5533
G1 X152.121 Y116.701 E4.6820
G1 X152.210 Y116.664 E4.6868
G1 X166.790 Y116.664 E5.4142
G1 X128.845 Y118.936 F4800
G92 E0
G1 X128.845 Y133.517 E0.7274 F2520
G1 X128.808 Y133.605 E0.7322
G1 X126.984 Y135.430 E0.8610
G1 X126.895 Y135.467 E0.8657
G1 X112.315 Y135.467 E1.5932
G1 X112.226 Y135.430 E1.5979
G1 X110.401 Y133.605 E1.7267
G1 X110.365 Y133.517 E1.7314
G1 X110.365 Y118.936 E2.4589
G1 X110.401 Y118.848 E2.4636
G1 X112.226 Y117.023 E2.5924
G1 X112.315 Y116.987 E2.5972
G1 X126.895 Y116.987 E3.3246
G1 X126.984 Y117.023 E3.3294
G1 X128.808 Y118.848 E3.4581
G1 X128.845 Y118.936 E3.4629
G92 E0
G1 E-15.0000 F600
G1 X107.641 Y121.264 F4800
G1 E0.0000 F600
G92 E0
G1 X107.641 Y135.845 E0.7274 F2520
G1 X107.605 Y135.933 E0.7322
G1 X105.780 Y137.758 E0.8610
G1 X105.692 Y137.794 E0.8657
G1 X91.111 Y137.794 E1.5932
G1 X91.023 Y137.758 E1.5979
G1 X89.198 Y135.933 E1.7267
G1 X89.161 Y135.845 E1.7314
G1 X89.161 Y121.264 E2.4589
G1 X89.198 Y121.176 E2.4636
G1 X91.023 Y119.351 E2.5924
G1 X91.111 Y119.314 E2.5972
G1 X105.692 Y119.314 E3.3246
G1 X105.780 Y119.351 E3.3294
G1 X107.605 Y121.176 E3.4581
G1 X107.641 Y121.264 E3.4629
G92 E0
G1 E-15.0000 F600
; inner perimeter
G1 X103.201 Y123.754 F4800
G1 E0.0000 F600
G92 E0
G1 X103.201 Y133.354 E0.4789 F2352
G1 X93.601 Y133.354 E0.9579
G1 X93.601 Y123.754 E1.4368
G1 X103.201 Y123.754 E1.9158
; inner perimeter
G1 X103.681 Y123.274 F4800
G92 E0
G1 X103.681 Y133.834 E0.5268 F2184
G1 X93.121 Y133.834 E1.0537
G1 X93.121 Y123.274 E1.5805
G1 X103.681 Y123.274 E2.1074
; outer perimeter
G1 X104.161 Y122.794 F4800
G92 E0
G1 X104.161 Y134.314 E0.5747 F2016
G1 X92.641 Y134.314 E1.1495
G1 X92.641 Y122.794 E1.7242
G1 X104.161 Y122.794 E2.2989
; inner perimeter
G1 X101.182 Y125.949 F4800
G92 E0
G1 X100.671 Y125.284 E0.0418 F2352
G1 X100.007 Y124.774 E0.0836
G1 X99.232 Y124.453 E0.1254
G1 X98.401 Y124.344 E0.1672
G1 X97.570 Y124.453 E0.2091
G1 X96.796 Y124.774 E0.2509
G1 X96.131 Y125.284 E0.2927
G1 X95.621 Y125.949 E0.3345
G1 X95.300 Y126.723 E0.3763
G1 X95.191 Y127.554 E0.4181
G1 X95.300 Y128.385 E0.4599
G1 X95.621 Y129.159 E0.5017
G1 X96.131 Y129.824 E0.5435
G1 X96.796 Y130.334 E0.5854
G1 X97.570 Y130.655 E0.6272
G1 X98.401 Y130.765 E0.6690
G1 X99.232 Y130.655 E0.7108
G1 X100.007 Y130.334 E0.7526
G1 X100.671 Y129.824 E0.7944
G1 X101.182 Y129.159 E0.8362
G1 X101.502 Y128.385 E0.8780
G1 X101.612 Y127.554 E0.9199
G1 X101.502 Y126.723 E0.9617
G1 X101.182 Y125.949 E1.0035
; inner perimeter
G1 X100.762 Y126.191 F4800
G92 E0
G1 X100.329 Y125.626 E0.0355 F2184
G1 X99.764 Y125.193 E0.0710
G1 X99.107 Y124.921 E0.1065
G1 X98.401 Y124.828 E0.1420
G1 X97.696 Y124.921 E0.1775
G1 X97.038 Y125.193 E0.2130
G1 X96.474 Y125.626 E0.2485
G1 X96.040 Y126.191 E0.2840
G1 X95.768 Y126.849 E0.3196
G1 X95.675 Y127.554 E0.3551
G1 X95.768 Y128.260 E0.3906
G1 X96.040 Y128.917 E0.4261
G1 X96.474 Y129.482 E0.4616
G1 X97.038 Y129.915 E0.4971
G1 X97.696 Y130.187 E0.5326
G1 X98.401 Y130.280 E0.5681
G1 X99.107 Y130.187 E0.6036
G1 X99.764 Y129.915 E0.6391
G1 X100.329 Y129.482 E0.6746
G1 X100.762 Y128.917 E0.7101
G1 X101.035 Y128.260 E0.7456
G1 X101.128 Y127.554 E0.7811
G1 X101.035 Y126.849 E0.8166
G1 X100.762 Y126.191 E0.8521
; outer perimeter
G1 X100.343 Y126.433 F4800
G92 E0
G1 X99.987 Y125.969 E0.0292 F2016
G1 X99.522 Y125.612 E0.0584
G1 X98.982 Y125.388 E0.0876
G1 X98.401 Y125.312 E0.1168
G1 X97.821 Y125.388 E0.1460
G1 X97.280 Y125.612 E0.1752
G1 X96.816 Y125.969 E0.2044
G1 X96.460 Y126.433 E0.2336
G1 X96.236 Y126.974 E0.2628
G1 X96.159 Y127.554 E0.2920
G1 X96.236 Y128.134 E0.3212
G1 X96.460 Y128.675 E0.3504
G1 X96.816 Y129.140 E0.3796
G1 X97.280 Y129.496 E0.4088
G1 X97.821 Y129.720 E0.4380
G1 X98.401 Y129.796 E0.4672
G1 X98.982 Y129.720 E0.4964
G1 X99.522 Y129.496 E0.5256
G1 X99.987 Y129.140 E0.5548
G1 X100.343 Y128.675 E0.5840
G1 X100.567 Y128.134 E0.6132
G1 X100.643 Y127.554 E0.6424
G1 X100.567 Y126.974 E0.6716
G1 X100.343 Y126.433 E0.7008
; solid layer
G1 X101.979 Y127.889 F4800
G92 E0
G1 X102.793 Y127.075 E0.0574 F2520
G1 X102.793 Y126.396 E0.0913
G1 X101.978 Y127.211 E0.1488
G1 X101.900 Y126.617 E0.1788
G1 X101.898 Y126.613 E0.1790
G1 X102.793 Y125.717 E0.2422
G1 X102.793 Y125.038 E0.2760
G1 X101.699 Y126.133 E0.3532
